assets/icons/android.svg

<svg height="25" viewBox="0 0 20.99 25" width="20.99" xmlns="http://www.w3.org/2000/svg"><g fill="#a4c639"><path d="m17.4 19a1 1 0 0 1 -1 1h-11.78a1 1 0 0 1 -1-1v-10.56h13.78z"/><path d="m8 3.05a.24.24 0 0 1 -.1.32.25.25 0 0 1 -.32-.11l-1.52-2.9a.22.22 0 0 1 .1-.31.23.23 0 0 1 .31.1z"/><path d="m13.38 3.17a.24.24 0 0 1 -.32.09.23.23 0 0 1 -.06-.32l1.6-2.82a.24.24 0 0 1 .32-.12.23.23 0 0 1 .08.35z"/><path d="m21 16.1a1.48 1.48 0 0 1 -1.48 1.48 1.48 1.48 0 0 1 -1.52-1.48v-6.48a1.48 1.48 0 0 1 1.48-1.48 1.48 1.48 0 0 1 1.52 1.48z"/><path d="m3 16.1a1.48 1.48 0 0 1 -1.48 1.48 1.48 1.48 0 0 1 -1.52-1.48v-6.48a1.48 1.48 0 0 1 1.48-1.48 1.48 1.48 0 0 1 1.52 1.48z"/><path d="m9.41 23.52a1.48 1.48 0 0 1 -1.48 1.48 1.48 1.48 0 0 1 -1.48-1.48v-6.52a1.49 1.49 0 0 1 1.48-1.49 1.49 1.49 0 0 1 1.48 1.49z"/><path d="m14.55 23.52a1.48 1.48 0 0 1 -1.48 1.48 1.48 1.48 0 0 1 -1.48-1.48v-6.52a1.49 1.49 0 0 1 1.48-1.49 1.49 1.49 0 0 1 1.48 1.49z"/><path d="m10.5 1.51a7 7 0 0 0 -7 6.27h13.97a7 7 0 0 0 -7-6.27zm-3.14 3.8a.58.58 0 0 1 -.59-.58.58.58 0 1 1 .59.58zm6.3 0a.58.58 0 0 1 -.58-.58.57.57 0 0 1 .58-.57.56.56 0 0 1 .57.57.57.57 0 0 1 -.57.58z"/></g></svg>

<svg xmlns="http://www.w3.org/2000/svg" width="20.99" height="25" viewBox="0 0 20.99 25"><path d="M17.4,19a1,1,0,0,1-1,1H4.62a1,1,0,0,1-1-1V8.44H17.4Z" fill="#a4c639"/><path d="M8,3.05a.24.24,0,0,1-.1.32h0a.25.25,0,0,1-.32-.11L6.06.36a.22.22,0,0,1,.1-.31h0a.23.23,0,0,1,.31.1L8,3.05Z" fill="#a4c639"/><path d="M13.38,3.17a.24.24,0,0,1-.32.09h0A.23.23,0,0,1,13,2.94L14.6.12A.24.24,0,0,1,14.92,0h0A.23.23,0,0,1,15,.35L13.38,3.17Z" fill="#a4c639"/><path d="M21,16.1a1.48,1.48,0,0,1-1.48,1.48h0A1.48,1.48,0,0,1,18,16.1V9.62a1.48,1.48,0,0,1,1.48-1.48h0A1.48,1.48,0,0,1,21,9.62Z" fill="#a4c639"/><path d="M3,16.1a1.48,1.48,0,0,1-1.48,1.48h0A1.48,1.48,0,0,1,0,16.1V9.62A1.48,1.48,0,0,1,1.48,8.14h0A1.48,1.48,0,0,1,3,9.62Z" fill="#a4c639"/><path d="M9.41,23.52A1.48,1.48,0,0,1,7.93,25h0a1.48,1.48,0,0,1-1.48-1.48V17a1.49,1.49,0,0,1,1.48-1.49h0A1.49,1.49,0,0,1,9.41,17Z" fill="#a4c639"/><path d="M14.55,23.52A1.48,1.48,0,0,1,13.07,25h0a1.48,1.48,0,0,1-1.48-1.48V17a1.49,1.49,0,0,1,1.48-1.49h0A1.49,1.49,0,0,1,14.55,17Z" fill="#a4c639"/><path d="M10.5,1.51a7,7,0,0,0-7,6.27H17.47a7,7,0,0,0-7-6.27ZM7.36,5.31a.58.58,0,0,1-.59-.58.58.58,0,1,1,.59.58Zm6.3,0a.58.58,0,0,1-.58-.58.57.57,0,0,1,.58-.57.56.56,0,0,1,.57.57A.57.57,0,0,1,13.66,5.31Z" fill="#a4c639"/></svg>
